Sources/FrostedUI/Resources/Icons.xcassets/cursor16.imageset/cursor-16.svg

<svg width="16" height="16" viewBox="0 0 16 16" fill="none" xmlns="http://www.w3.org/2000/svg" data-fui-icon="true">
  <path
    d="M1.12231 3.56961C0.583675 2.04949 2.04946 0.583706 3.56958 1.12234L14.1213 4.86453C15.7737 5.45079 15.8369 7.76442 14.219 8.43973L13.6409 7.05496C13.9927 6.90815 13.9786 6.40501 13.6194 6.27762L3.0686 2.53641C2.73835 2.41965 2.41962 2.73838 2.53638 3.06863L6.27759 13.6194C6.40497 13.9786 6.90811 13.9928 7.05493 13.6409L8.38892 10.4427C8.48519 10.212 8.69067 10.044 8.93579 9.99539C9.18104 9.94693 9.4347 10.0248 9.61157 10.2014L12.2883 12.8772C12.451 13.0399 12.7145 13.0399 12.8772 12.8772C13.0399 12.7145 13.0399 12.4511 12.8772 12.2884L10.2014 9.6116C10.0248 9.43473 9.9469 9.18107 9.99536 8.93582C10.044 8.6907 10.212 8.48522 10.4426 8.38895L13.6409 7.05496L14.218 8.43973L12.053 9.34207L13.9377 11.2278C14.6862 11.9763 14.6862 13.1893 13.9377 13.9378C13.1892 14.6863 11.9763 14.6863 11.2278 13.9378L9.34204 12.053L8.4397 14.218C7.76457 15.8362 5.45081 15.7739 4.8645 14.1214L1.12231 3.56961Z"
    fill="currentColor"
  />
</svg>

<svg xmlns="http://www.w3.org/2000/svg" width="16" height="16" fill="none" data-fui-icon="true" viewBox="0 0 16 16"><path fill="currentColor" d="M1.122 3.57C.584 2.05 2.05.584 3.57 1.122L14.12 4.865c1.653.586 1.716 2.9.098 3.575l-.578-1.385a.417.417 0 0 0-.022-.777L3.07 2.536a.417.417 0 0 0-.533.533l3.742 10.55c.127.36.63.374.777.022l1.334-3.198a.752.752 0 0 1 1.223-.242l2.676 2.676a.416.416 0 1 0 .59-.589L10.2 9.612a.75.75 0 0 1 .242-1.223l3.198-1.334.577 1.385-2.165.902 1.885 1.886a1.916 1.916 0 1 1-2.71 2.71l-1.886-1.885-.902 2.165c-.675 1.618-2.99 1.556-3.575-.097z"/></svg>
